X: 34774
T: Road To Reel, The
R: jig
M: 6/8
K: Gmajor
|:B2A Bdg|ABd BAG|B2A Bdg|age dBA|
B2A Bdg|ABd BAG|B2A Bdg|age dBA:|
|:Bde g2b|agb age|Bde g2b|age dBA|
Bde g2b|agb age|g3 a3|age dBA|
Bde g2b|agb age|Bde g3|age dBA|
Bde g2b|agb age|BDD Bdg|age dBA||

